X: 3953
T: Blackcock, The
R: jig
M: 6/8
K: Gmajor
D|D2A ADA|B2D A2D|G2D DB,D|EDB, D2D|
D2A ADA|B2D A2D|G2B c2B|B2A A2D|
DAD ADA|B2D A2D|G2D DB,D|EDB, D2D|
D2A ADA|B2D A2D|G2B c2B|B2A AGA||
B2G GFG|D2G GFG|B2G GFG|c2e d2c|
B2G GFG|D2G GED|E2D EFG|A3 ABc|
BGB dBG|d2F FGA|G2E E2D|EFG ABc|
B2G GFG|D2G GED|E2D EFG|A3 A2||

